img/icon-feature-ball.svg

<svg xmlns="http://www.w3.org/2000/svg" width="34.373" height="34.373" viewBox="0 0 34.373 34.373"><g fill="#63d1bb"><path d="M.286 14.07c-.382 2.072-.384 4.21.008 6.3l4.12-3.21-4.128-3.09zM24.403 1.585C19.62-.623 13.96-.56 9.15 1.992l7.512 5.625 7.74-6.032zM33.9 13.175l-4.81 3.748 4.936 3.695c.496-2.445.463-4.988-.125-7.443zM9.21 32.414c4.843 2.534 10.723 2.65 15.73.113l-8.097-6.062-7.634 5.95zM7.914 14.433L1.68 9.767c-.32.67-.594 1.356-.824 2.056l5.308 3.974 1.75-1.364zM18.593 25.102l8.336 6.242c.276-.19.55-.39.82-.6.317-.25.624-.506.92-.772l-8.327-6.234-1.75 1.364zM11.413 11.707l-7.41-5.55c-.463.552-.886 1.128-1.27 1.724l6.93 5.19 1.75-1.363zM22.093 22.375l8.092 6.06c.47-.545.904-1.113 1.297-1.702l-7.64-5.72-1.75 1.362zM14.913 8.98L7.196 3.203c-.193.138-.384.28-.573.426-.396.308-.774.63-1.136.967l7.676 5.747 1.75-1.364zM25.592 19.65l6.972 5.22c.33-.662.615-1.34.855-2.033l-6.078-4.55-1.75 1.362zM26.448 2.706L.88 22.626c.233.698.513 1.386.84 2.06L28.24 4.02c-.573-.48-1.172-.92-1.792-1.316zM30.743 6.624c-.3-.386-.614-.754-.94-1.106L2.787 26.568c.262.4.542.796.843 1.182.14.183.287.36.435.534l27.09-21.108c-.134-.186-.27-.37-.412-.552zM32.298 9L5.552 29.837c.544.5 1.114.962 1.708 1.382l25.962-20.228c-.263-.678-.57-1.344-.924-1.993z"/></g></svg>

<svg version="1.1" id="Layer_1" xmlns="http://www.w3.org/2000/svg" xmlns:xlink="http://www.w3.org/1999/xlink" x="0px" y="0px" width="34.373px" height="34.373px" viewBox="0 0 34.373 34.373" enable-background="new 0 0 34.373 34.373" xml:space="preserve">
  <g>
    <path fill="#63d1bb" d="M0.286,14.069c-0.382,2.073-0.384,4.211,0.008,6.301l4.121-3.21L0.286,14.069z"/>
    <path fill="#63d1bb" d="M24.403,1.585C19.62-0.623,13.959-0.559,9.149,1.992l7.513,5.625L24.403,1.585z"/>
    <path fill="#63d1bb" d="M33.901,13.175l-4.811,3.748l4.936,3.695C34.522,18.173,34.489,15.63,33.901,13.175z"/>
    <path fill="#63d1bb" d="M9.209,32.414c4.844,2.534,10.724,2.65,15.73,0.113l-8.096-6.062L9.209,32.414z"/>
    <path fill="#63d1bb" d="M7.914,14.433L1.681,9.767c-0.32,0.669-0.595,1.356-0.825,2.056l5.308,3.974L7.914,14.433z"/>
    <path fill="#63d1bb" d="M18.593,25.102l8.336,6.242c0.277-0.191,0.551-0.391,0.82-0.601c0.318-0.248,0.625-0.505,0.92-0.771l-8.326-6.234 L18.593,25.102z"/>
    <path fill="#63d1bb" d="M11.413,11.707L4.002,6.158C3.54,6.709,3.117,7.285,2.733,7.881l6.931,5.189L11.413,11.707z"/>
    <path fill="#63d1bb" d="M22.093,22.375l8.092,6.059c0.471-0.544,0.904-1.112,1.297-1.701l-7.639-5.721L22.093,22.375z"/>
    <path fill="#63d1bb" d="M14.913,8.98L7.196,3.203C7.003,3.341,6.812,3.482,6.623,3.629C6.227,3.938,5.849,4.261,5.487,4.597l7.676,5.747 L14.913,8.98z"/>
    <path fill="#63d1bb" d="M25.592,19.649l6.972,5.221c0.33-0.662,0.615-1.341,0.855-2.033l-6.077-4.55L25.592,19.649z"/>
    <path fill="#63d1bb" d="M26.448,2.706L0.88,22.626c0.233,0.698,0.513,1.386,0.839,2.059l26.52-20.663C27.667,3.541,27.068,3.102,26.448,2.706z"/>
    <path fill="#63d1bb" d="M30.743,6.624c-0.301-0.386-0.614-0.754-0.939-1.106L2.786,26.567c0.262,0.402,0.542,0.797,0.843,1.183 c0.142,0.183,0.288,0.359,0.436,0.534L31.155,7.176C31.021,6.99,30.886,6.806,30.743,6.624z"/>
    <path fill="#63d1bb" d="M32.298,8.999L5.552,29.838c0.544,0.501,1.114,0.962,1.708,1.382l25.962-20.228C32.959,10.314,32.651,9.648,32.298,8.999z"/>
  </g>
</svg>
